icon-themes/sifr_svg/cmd/lc_presentationminimizer.svg

<svg viewBox="0 0 24 24" xmlns="http://www.w3.org/2000/svg"><path d="m1 2v3h2v.4l2.7-3.4zm6 0-4 5h2l-3 6 9-7h-2l4-4zm7.4 0-3 3h2.5 5.1v11h-14v-4.07l-2 1.57v4.5h5l-3 3v1h2l4-4h2l4 4h2v-1l-3-3h5v-13h2v-3zm-1.8 4-2.6 2h7v-2zm-3.83 3-1.77 1.376953v3.623047h3v-5zm3.23 0v5h5v-5zm-4 1h1v3h-1zm5 0h3v3h-3z" fill="#555753"/></svg>

<svg xmlns="http://www.w3.org/2000/svg" viewBox="0 0 24 24">
  <path
     style="fill:#555753"
     d="M 1,2 V 5 H 3 V 5.4 L 5.7,2 Z M 7,2 3,7 H 5 L 2,13 11,6 H 9 l 4,-4 z m 7.4,0 -3,3 h 2.5 H 19 V 16 H 5 V 11.93 L 3,13.5 V 18 h 5 l -3,3 v 1 h 2 l 4,-4 h 2 l 4,4 h 2 v -1 l -3,-3 h 5 V 5 h 2 V 2 Z M 12.6,6 10,8 H 17 V 6 Z M 8.77,9 7,10.376953 V 14 h 3 V 9 Z M 12,9 v 5 h 5 V 9 Z m -4,1 h 1 v 3 H 8 Z m 5,0 h 3 v 3 h -3 z"
     />
</svg>
